X: 12806
T: Feathers, The
R: jig
M: 6/8
K: Gmajor
|:D|G2 G G2 g|gfe d3|c2 B A2 G|FGA D3|
G2 G G2 g|gfe d2 c|BAG DGF|G3G,2:|
|:D|D2 D D2 d|dcB c2 A|D2 D D2 c|cBA B2 A|
G2 G G2 g|gfe d2 c|BAG DGF|G3G,2:|
K:Bb
|:A|BAB G2 A|BAB G2 A|BAG BAG|A2 D D2 A|
BAB G2 A|BAB G2 A|dcB AG^F|G3G,2:|

